X:1
T:POLKA
T:POLKA
L:1/8
M:2/4
K:G
V:1 treble 
V:1
 (B/c/) | ded>B | GBd>g | f2 e2 | e^d e2 | cdc>A | FAc>e | e2 d2 | d^c d2 | ded>B | GBd>g | f2 e2 | %12
 e2 (fg) | aba>g | fde>f | g2 [Bg]2 | [Bg]3 :: (!fermata!A/d/) | f2 f2 | gfe>d | f2 e2 | e^d e2 | %22
 A^ce>f | g2 ga | b2 a2 | agfg | Adfg | g2 f2 | f2 e2 | e^d e2 | A^ceg | e2 ^c2 | d2 f2 | %33
 d3!D.C.! :| %34

